X:1
T: General Garibaldi's Reel
C:
R:Reel
Q: 232
K:D
M:4/4
L:1/8
|:D2 FA dc BA|Bc dB AF DF|G2 BG F2 AF|GF ED CE CA,|
D2 FA dc BA|Bc dB AF DF|GA BG FA dg|fd ec d2 d2|
d2 fd ad fa|gf ed ce cA|d2 fd ad fa|ge cA d2 d2|
d2 fd ad fa|gf ed ce cA|BG GB AF Fg|fd ec d2:|
